X:1
T:James Gibb editions
T:Hear, O Jesu, Israel's Shepherd, hear us  - Barnby
%%score [ ( 1 2 ) ( 3 4 ) ]
L:1/8
Q:1/4=90
M:4/4
K:D
V:1 treble nm="Midi_74"
V:2 treble 
V:3 bass nm="Midi_74"
V:4 bass 
V:1
"^10 9. 10 9""^Hear, O Jesu, Israel's Shepherd, hear us""^Joseph Barnby\n(1838-96)"!p! D3 D D2 E2 | %1
 F2 G2 A2 d2 | (c4 B4) | A6 z2 ||!mf! G3 G G2 G2 | G2 A2 F2 E2 | E8 ||[M:4/4]!p! D3 D D2 E2 | %8
 F2 G2 A2 d2 | (d4 c4) | B6 z2 ||"^rall." E3 E E2 F2 | A2 G2 E3 F | D8 || G4 F4 |] %15
V:2
 D3 D D2 D2 | D2 C2 D2 D2 | (E4 D4) | F6 z2 || E3 E E2 E2 | E2 E2 D2 D2 | C8 ||[M:4/4] D3 D D2 D2 | %8
 D2 D2 D2 D2 | E8 | D6 z2 || D3 D D2 D2 | D2 D2 C3 C | D8 || D4 D4 |] %15
V:3
!p! F,3 F, F,2 G,2 | A,2 A,2 A,2 A,2 | (^A,4 B,4) | D6 z2 ||!mf! B,3 B, B,2 B,2 | %5
 A,2 A,2 A,2 ^G,2 | A,8 ||[M:4/4]!p! F,3 F, F,2 G,2 | %8
"^1. Hear, O Jesu, Israel's Shepherd, hear us,\nThou that leadest Joseph like a sheep;\nOn the hilltop bleak be ever near us\nIn the darksome valley while we sleep.\n\n2. Thy sweet voice amidst the storm to cheer us,\nThy blest footmarks for the narrow way;\nThy dear hand to hold up and to steer us,\nFor Thy help and guidance, Lord, we pray.\n\n3. Thy dear voice, O Shepherd, true and tender,\nAll its wondrous tones Thy sheep would know;\nTo Thy call their prompt obedience render,\nFollow Thee wherever Thou would go." A,2 A,2 A,2 A,2 | %9
 ^A,8 | B,6 z2 || B,3 B, B,2 B,2 | B,2 B,2 G,3 G, | F,8 || B,4 A,4 |] %15
V:4
 D,3 D, D,2 D,2 | D,2 E,2 F,2 F,2 | G,8 | D,6 z2 || E,3 E, E,2 D,2 | C,2 C,2 D,2 B,,2 | A,,8 || %7
[M:4/4] D,3 D, D,2 D,2 | D,2 E,2 F,2 F,2 | F,8 | G,6 z2 || G,3 G, G,2 F,2 | E,2 E,2 A,,3 A,, | %13
 D,8 || G,,4 D,4 |] %15

